X: 14459
T: Game Of Love, The
R: reel
M: 4/4
K: Edorian
|:B2 EF G3B|AD (3FED ADFA|BEEF G3B|dBAF Be e2|
E3F G3B|ADFD ADFA|B3A G3B|dBAF BE E2:|
|:e3f egfe|defa gfed|eBBA Bgfe|dBAF BE E2|
e3f egfe|defa ge e2|gfeg fedc|dBAF BE E2:|

